X:130
T:Leave me alone - Nichols
%%VWML:SBG-1-2-425-0
F:http://www.vwml.org/record/SBG/1/2/425
Z:Original Sibelius transcriptions by M. & S. Graebe
M:4/4
I:linebreak $
K:C
V:1 treble nm="P1"
V:1
 G2 | cd ed c2 BA | G2 GF E2 G2 | c2 cB A2 EF | G2 GE D2 G2 |$ G2 EF GG EG | c2 ed !fermata!cB c2 | %7
 c2 de f2 fd | B2 Bc c4 |$ G2 EF G4 | A2 fd c!fermata!B G2 | c2 de f2 fd | c2 Bc c2 x2 | %13
T:Leave me alone -Fone
F:http://www.vwml.org/record/SBG/1/2/425
Z:Original Sibelius transcriptions by M. & S. Graebe
M:3/4
I:linebreak $
K:C
V:1 treble nm="P1"
V:1
 g | c e g | c e g | c e g | g2 c | f f g | a g a | d e f |$ g2 g | c'3/2 b/ a | a g a | d e ^f | %12
 g2 g | g g d | =f3/2 e/ d |$ g d e | g/f/ d (3G/A/B/ | c c c | c B c | d d (3f/e/d/ | c B z | %21
 c e g |$ a2 f | B d f | g2 (3g/a/b/ | c' g e | f/a/ f e | d/f/ B d | c2 x | %29






